X:520
T:Back Proddin' Mudguard 
C:Joe Buchanan's Scottish Tome - Page 008.2
I:008 2
C:Mickie Ainsworth
R:Reel
Z:Carl Allison
L:1/8
M:4/4
K:D
A>G | F>EFA d2 fe | d>BGB A2 AG/ | F>DFA dAFD | E2 ^GB A>=G |
| F>EFA d2 fe | d>BGB A2 FE/ | D>EFA GA,FE | D2 F>E [DF]2 [DF]2 |]
A>G| E>^DEF GEAG | F>EFG A2 A2 | G>F^GA BEFG | A2 B2 c2 A>G |
| F>DFA d2 fe | d>BGB A2F>E| D>EFA GA,FE | D2 F>E [DF]4 |]

